X:1
T:My hiding place, my refuge tower
T:Bennett Mintern Swaffield
T:p182, Sacred Harmony, ed. R. Garbett, London: (1818)
T:This edition by Edmund Gooch released into the public domain, February 2013.
T:My hiding place, my refuge tower
T:Psalm 119, verses 114, 115, 116, 128.
C:Bennett Mintern Swaffield
Z:p182, Sacred Harmony, ed.
Z:R. Garbett, London: (1818)
%%score [ 1 2 3 4 ]
L:1/8
M:3/2
K:Eb
V:1 treble nm="Soprano" snm="S."
V:2 treble nm="Alto" snm="A."
V:3 treble-8 transpose=-12 nm="Tenor" snm="T."
V:4 bass nm="Bass" snm="B."
V:1
 E4 | G8 B4 | (e4 B4) c4 | (B3 A G4) F4 | G8 B4 | (c4 d4) e4 | d8 c4 | B8 G4 | (A4 G4) F4 | %9
w: Ac-|cord- ing|to _ thy|gra- * * cious|word, From|dan- * ger|set me|free; Nor|make _ me|
w: My|hi- ding|place, _ my|re- * * fuge|tow’r, And|shield _ art|thou, O|Lord; I|firm- * ly|
w: Hence,|ye that|trade _ in|wic- * * ked-|ness, Ap-|proach _ not|my a-|bode; For|firm- * ly|
 (E4 F4) G4 | (A2 G2 c2 B2) (A2 G2) | (G4 F4) B4 | (c4 d4) e4 | (A4 G4) F4 | E8 |] %15
w: of _ those|hopes _ _ _ a- *|sham’d _ That|I _ re-|pose _ in|thee.|
w: an- * chor|all _ _ _ my _|hopes _ On|thy _ un-|err- * ing|word.|
w: I _ re-|solve _ _ _ to _|keep _ The|pre- * cepts|of _ my|God.|
V:2
 B,4 | E8 F4 | E8 E4 | (G3 F E4) D4 | E8 E4 | (E4 F4) G4 | F8 E4 | D8 E4 | (F4 E4) D4 | C4 B,8 | %10
w: Ac-|cord- ing|to thy|gra- * * cious|word, From|dan- * ger|set me|free; Nor|make _ me|of those|
w: My|hi- ding|place, my|re- * * fuge|tow’r, And|shield _ art|thou, O|Lord; I|firm- * ly|an- chor|
w: Hence,|ye that|trade in|wic- * * ked-|ness, Ap-|proach _ not|my a-|bode; For|firm- * ly|I re-|
 (F2 E2 A2 G2) (F2 E2) | (E4 D4) E4 | (E4 F4) G4 | (F4 E4) D4 | E8 |] %15
w: hopes _ _ _ a- *|sham’d _ That|I _ re-|pose _ in|thee.|
w: all _ _ _ my _|hopes _ On|thy _ un-|err- * ing|word.|
w: solve _ _ _ to _|keep _ The|pre- * cepts|of _ my|God.|
V:3
 G4 | B8 B4 | G8 (c2 d2) | (e4 B4) A4 | G8 e4 | (c3 B A4) B4 | B8 =A4 | B8 B4 | B8 B4 | %9
w: Ac-|cord- ing|to thy _|gra- * cious|word, From|dan- * * ger|set me|free; Nor|make me|
w: My|hi- ding|place, my _|re- * fuge|tow’r, And|shield _ _ art|thou, O|Lord; I|firm- ly|
w: Hence,|ye that|trade in _|wic- * ked-|ness, Ap-|proach _ _ not|my a-|bode; For|firm- ly|
 (G4 F4) B4 | (B4 A2 B2) c4 | B8 G4 | (c3 B A4) B4 | (c4 B4) A4 | G8 |] %15
w: of _ those|hopes _ _ a-|sham’d That|I _ _ re-|pose _ in|thee.|
w: an- * chor|all _ _ my|hopes On|thy _ _ un-|err- * ing|word.|
w: I _ re-|solve _ _ to|keep The|pre- * * cepts|of _ my|God.|
V:4
 E,4 | E,8 D,4 | (C,2 D,2 E,4) A,4 | B,8 B,,4 | E,8 G,4 | (A,3 G, F,4) E,4 | F,8 F,4 | B,,8 E,4 | %8
w: Ac-|cord- ing|to _ _ thy|gra- cious|word, From|dan- * * ger|set me|free; Nor|
w: My|hi- ding|place, _ _ my|re- fuge|tow’r, And|shield _ _ art|thou, O|Lord; I|
w: Hence,|ye that|trade _ _ in|wic- ked-|ness, Ap-|proach _ _ not|my a-|bode; For|
"^This edition is based on the first publication of this psalm tune, on p182 of Richard Garbett's Sacred Harmony (1818), whereit is attributed to ’Swaffield’. Verses after the first are printed after the music in the source, but have been underlaid here, anda keyboard accompaniment doubling the voice parts has been omitted.The tune was republished in 1822 on p7 of Bennett Mintern Swaffield’s own collection, Twenty Five Original Melodies." (D,4 E,4) B,,4 | %9
w: make _ me|
w: firm- * ly|
w: firm- * ly|
 (C,4 D,4) E,4 | (D,2 E,2 F,2 G,2) (A,2 =A,2) | B,8 E,4 | (A,3 G, F,4) E,4 | (A,4 B,4) B,,4 | %14
w: of _ those|hopes _ _ _ a- *|sham’d That|I _ _ re-|pose _ in|
w: an- * chor|all _ _ _ my _|hopes On|thy _ _ un-|err- * ing|
w: I _ re-|solve _ _ _ to _|keep The|pre- * * cepts|of _ my|
 E,8 |] %15
w: thee.|
w: word.|
w: God.|

